2 Export/Icons/Rounded/1 Player/Playlist Add.svg

<svg xmlns="http://www.w3.org/2000/svg" xmlns:xlink="http://www.w3.org/1999/xlink" width="24" height="24" viewBox="0 0 24 24">
  <defs>
    <path id="playlist-add-a" d="M13 9H3c-.55 0-1 .45-1 1s.45 1 1 1h10c.55 0 1-.45 1-1s-.45-1-1-1zm0-4H3c-.55 0-1 .45-1 1s.45 1 1 1h10c.55 0 1-.45 1-1s-.45-1-1-1zm5 8v-3c0-.55-.45-1-1-1s-1 .45-1 1v3h-3c-.55 0-1 .45-1 1s.45 1 1 1h3v3c0 .55.45 1 1 1s1-.45 1-1v-3h3c.55 0 1-.45 1-1s-.45-1-1-1h-3zM3 15h6c.55 0 1-.45 1-1s-.45-1-1-1H3c-.55 0-1 .45-1 1s.45 1 1 1z"/>
  </defs>
  <g fill="none" fill-rule="evenodd">
    <polygon points="0 0 24 0 24 24 0 24"/>
    <mask id="playlist-add-b" fill="#fff">
      <use xlink:href="#playlist-add-a"/>
    </mask>
    <use fill="#000" xlink:href="#playlist-add-a"/>
    <g fill="#000" mask="url(#playlist-add-b)">
      <rect width="24" height="24"/>
    </g>
  </g>
</svg>

<svg xmlns="http://www.w3.org/2000/svg" xmlns:xlink="http://www.w3.org/1999/xlink" width="24" height="24" viewBox="0 0 24 24">
  <defs>
    <path id="playlist-add-a" d="M13,9 L3,9 C2.45,9 2,9.45 2,10 C2,10.55 2.45,11 3,11 L13,11 C13.55,11 14,10.55 14,10 C14,9.45 13.55,9 13,9 Z M13,5 L3,5 C2.45,5 2,5.45 2,6 C2,6.55 2.45,7 3,7 L13,7 C13.55,7 14,6.55 14,6 C14,5.45 13.55,5 13,5 Z M18,13 L18,10 C18,9.45 17.55,9 17,9 C16.45,9 16,9.45 16,10 L16,13 L13,13 C12.45,13 12,13.45 12,14 C12,14.55 12.45,15 13,15 L16,15 L16,18 C16,18.55 16.45,19 17,19 C17.55,19 18,18.55 18,18 L18,15 L21,15 C21.55,15 22,14.55 22,14 C22,13.45 21.55,13 21,13 L18,13 Z M3,15 L9,15 C9.55,15 10,14.55 10,14 C10,13.45 9.55,13 9,13 L3,13 C2.45,13 2,13.45 2,14 C2,14.55 2.45,15 3,15 Z"/>
  </defs>
  <g fill="none" fill-rule="evenodd">
    <polygon points="0 0 24 0 24 24 0 24"/>
    <mask id="playlist-add-b" fill="#fff">
      <use xlink:href="#playlist-add-a"/>
    </mask>
    <use fill="#000" xlink:href="#playlist-add-a"/>
    <g fill="#000" mask="url(#playlist-add-b)">
      <rect width="24" height="24"/>
    </g>
  </g>
</svg>
